im/mail3.svg

<svg version="1.1" xmlns="http://www.w3.org/2000/svg" viewBox="0 0 16 16" height="1em" width="1em">
  <path fill="#000000" d="M13.333 0h-10.666c-1.467 0-2.667 1.2-2.667 2.667v10.666c0 1.468 1.2 2.667 2.667 2.667h10.666c1.467 0 2.667-1.199 2.667-2.667v-10.666c0-1.467-1.2-2.667-2.667-2.667zM2.854 13.854l-1.207-1.207 4-4 0.457 0.457-3.25 4.75zM2.396 3.104l0.457-0.457 5.146 4.146 5.146-4.146 0.457 0.457-5.604 6.604-5.604-6.604zM13.146 13.854l-3.25-4.75 0.457-0.457 4 4-1.207 1.207z"/>
</svg>

<svg xmlns="http://www.w3.org/2000/svg" viewBox="0 0 16 16" height="1em" width="1em">
  <path d="M13.333 0H2.667A2.675 2.675 0 0 0 0 2.667v10.666C0 14.801 1.2 16 2.667 16h10.666A2.674 2.674 0 0 0 16 13.333V2.667C16 1.2 14.8 0 13.333 0zM2.854 13.854l-1.207-1.207 4-4 .457.457-3.25 4.75zm-.458-10.75.457-.457 5.146 4.146 5.146-4.146.457.457-5.604 6.604-5.604-6.604zm10.75 10.75-3.25-4.75.457-.457 4 4-1.207 1.207z"/>
</svg>
